X:1
T:Presto
T:J.S. Bach Violin Partita in Dm / (Gm)
T:for Treble Viol
T:NALVI.org
C:J.S. Bach
%%score ( 1 2 )
L:1/8
Q:3/8=40
M:3/8
K:C
V:1 treble nm="Voice"
V:2 treble 
V:1
 d/f/d/A/d/A/ | F/A/F/D/F/D/ |[K:alto] A,/D/A,/F,/A,/F,/ | D,/F,/A,/D/F/A/ | %4
[K:treble]"^5" d/(A/G/F/E/D/) | ^C/A,/C/E/A/^c/ | e/(_B/A/G/F/E/) | D/A,/D/F/A/d/ | f/d/_B/G/B/d/ | %9
"^10" e/c/A/F/A/c/ | d/_B/G/E/G/B/ | A,/d/(^c/d/e/)G/ | D/G/(F/G/A/)C/ | G,/c/(B/c/d/)F/ | %14
[K:alto]"^15" C/F/(E/F/G/)_B,/ | F,/_B/(A/B/c/)_E/ | _B,/F,/B,/D/B,/D/ | G/D/G/_B/G/B/ | %18
 C/G,/C/E/C/E/ |"^20" A/E/A/c/A/c/ | D/A,/D/F/D/F/ |[K:treble] _B/F/B/d/B/d/ | E/C/E/G/E/G/ | %23
 c/G/c/e/c/e/ |"^25" (F/G/A/)f/e/f/ | (G/A/_B/)f/e/f/ | (A/_B/c/)f/e/f/ | (_B/c/d/)f/e/f/ | %28
 (E/G/_B/)d/c/B/ |"^30" (A/F/)(_B/F/)c/[K:alto]_E/ | (D/=E/F/)A,/G,/E/ | F,/(A,/G,/F,/E,/D,/) | %32
 E,/(D/^C/B,/A,/)(G/ | F/E/D/)[K:treble](=c/B/A/ |"^35" ^G/)(f/e/d/)(c/B/) | (c/A/)(d/A/)e/G/ | %36
 F/(e/d/c/B/A/) | (B/G/)(c/G/)d/F/ | E/(d/c/B/A/^G/) |"^40" (A/F/)(B/F/)c/E/ | D/(c/B/A/^G/^F/) | %41
 (^G/E/)(A/E/)B/[K:alto]D/ | C/A/F/D/B,/=G/ | A,/F/D/B,/G,/E/ |"^45" F,/D/B,/^G,/E,/C/ | %45
 D,/(C/B,/A,/^G,/^F,/) | E,/A,/(^G,/B,/)(A,/C/) | E,/B,/(A,/C/)(B,/D/) | E,/C/(B,/D/)(C/E/) | %49
"^50" F,/D/(^C/E/)(D/F/) | ^G,/(F/E/D/=C/B,/) | C/A,/C/E/A/c/ | e/A/E!1!!3![E,B,E^G] | A3 :: %54
"^55" A,/E,/A,/^C/A,/C/ | E/^C/E/A/E/A/ |[K:treble] ^c/A/c/e/c/e/ | a/e/^c/A/E/^C/ | %58
[K:alto] (A,/B,/^C/D/E/F/ |"^60" G/)_B/G/E/G/E/ | ^C/A,/C/E/A/G/ | ^F/A/F/D/A,/^F,/ | %62
 (D,/E,/^F,/G,/A,/_B,/ | C/)_E/C/A,/C/A,/ |"^65" ^F,/D,/F,/A,/D/C/ | _B,/G,/B,/D/G/A/ | %66
 _B/G/_E/C/E/G/ | A/F/D/_B,/D/F/ | G/_E/C/A,/C/E/ |"^70" D,/G/(^F/G/A/)C/ | G,/c/(B/c/d/)=F/ | %71
 C/F/(_E/F/G/)_B,/ | F,/_B/(A/B/c/)_E/ | _B,/_E/(D/E/F/)_A,/ |"^75" (_E,/G,/C/_E/D/C/) | %75
 (^F,/A,/C/_E/D/C/) | (G,/=B,/C/_E/D/C/) | (A,/C/^F/G/A/C/) | (_B,/D/G/A/_B/G/) | %79
[K:treble]"^80" (_e/d/c/_B/A/G/) | d/A/_B/G/D/^F/ |[K:alto] G,/(C/_B,/A,/G,/=F,/) | %82
 E,/G,/C/G,/C/E/ | C/E/G/E/G/_B/ |"^85" G/_B/(e/d/c/B/) | (A/G/F/G/A/B/) | ^c/e/g/e/c/e/ | %87
 ^c/G/c/G/E/G/ |[K:alto] E/^C/E/C/A,/G/ |"^90" F/D/F/D/=B,/A/ | G/E/G/E/^C/[K:treble]_B/ | %91
 A/F/A/F/D/=c/ | _B/G/B/G/E/d/ | ^c/(A/B/c/d/e/) |"^95" f/A/d/f/G/_B/ | e/c/A/F/A/c/ | %96
 d/F/_B/d/E/G/ | c/A/F/D/F/A/ | _B/D/G/B/[K:alto]C/E/ |"^100" A/F/D/=B,/D/F/ | %100
 (G/E/)(F/D/)(^C/E/) | (A,/B,/^C/D/E/F/) |[K:treble] (G/_B/)(A/d/)(^c/f/) | (e/d/^c/B/A/G/) | %104
"^105" F/_B/(A/F/)(G/[K:alto]E/) | C/A/(G/E/)(F/D/) | _B,/G/(F/D/)(E/^C/) | A,/F/(E/^C/)(D/_B,/) | %108
 G,/E/(D/B,/)(^C/A,/) |"^110" F,/[K:treble](A/G/F/E/D/) | (_B/A/G/)(f/e/d/) | (^c/d/e/)A/_B/G/ | %112
[K:alto] (=C/^F/A/)_E/D/C/ | =B,/D/G/B/d/F/ |"^115" (_B,/E/G/)D/C/B,/ | A,/C/F/A/c/_E/ | %116
 D/_B/F/D/(_B,/A,/ | G,/)_B/!tenuto!G/F/E/D/ | ^C/A/(E/C/A,/G,/ |"^120" F,/)(A/F/E/D/=C/ | %120
 B,/)G,/D/F,/E,/D/ | ^C/A,/E/G,/F,/E/ | D/_B,/F/A,/G,/F/ | E/C/G/_B,/A,/G/ |"^125" F/D/A/C/=B,/A/ | %125
 G/E/_B/D/^C/B/ | A/F/d/F/E/G/ | F/D/^C/E/A,/G,/ | F,/D/(^C/E/)(D/F/) |"^130" G,/E/(D/F/)(E/G/) | %130
 A,/F/(E/G/)(F/A/) | _B,/G/(^F/A/)(G/_B/) | ^C/[K:treble](_B/A/G/F/E/) | F/A/d/f/d/A/ | %134
[K:alto] F/D/A,!2!!1!!0!!4![A,^CE^c] | [D,A,DFAd]3 :| %136
V:2
 x3 | x3 |[K:alto] x3 | x3 |[K:treble] x3 | x3 | x3 | x3 | x3 | x3 | x3 | x3 | x3 | x3 | %14
[K:alto] x3 | x3 | x3 | x3 | x3 | x3 | x3 |[K:treble] x3 | x3 | x3 | x3 | x3 | x3 | x3 | x3 | %29
 x5/2[K:alto] x/ | x3 | x3 | x3 | x3/2[K:treble] x3/2 | x3 | x3 | x3 | x3 | x3 | x3 | x3 | %41
 x5/2[K:alto] x/ | x3 | x3 | x3 | x3 | x3 | x3 | x3 | x3 | x3 | x3 | z E x | [A,^CE]3 :: x3 | x3 | %56
[K:treble] x3 | x3 |[K:alto] x3 | x3 | x3 | x3 | x3 | x3 | x3 | x3 | x3 | x3 | x3 | x3 | x3 | x3 | %72
 x3 | x3 | x3 | x3 | x3 | x3 | x3 |[K:treble] x3 | x3 |[K:alto] x3 | x3 | x3 | x3 | x3 | x3 | x3 | %88
[K:alto] x3 | x3 | x5/2[K:treble] x/ | x3 | x3 | x3 | x3 | x3 | x3 | x3 | x2[K:alto] x | x3 | x3 | %101
 x3 |[K:treble] x3 | x3 | x5/2[K:alto] x/ | x3 | x3 | x3 | x3 | x/[K:treble] x5/2 | x3 | x3 | %112
[K:alto] x3 | x3 | x3 | x3 | x3 | x3 | x3 | x3 | x3 | x3 | x3 | x3 | x3 | x3 | x3 | x3 | x3 | x3 | %130
 x3 | x3 | x/[K:treble] x5/2 | x3 |[K:alto] x3 | x3 :| %136

